X: 3
T: The Road To Lisdoonvarna
R: reel
M: 4/4
L: 1/8
K: Dmix
DA A/A/A ABcA|GE E/E/E cEGE|DA A/A/A ABcA|GBAG FDDE|DA A/A/A ABcA|GE E/E/E cEGE|DA A/A/A ABcA|GBAG FDDA||defd cA A/A/A|BG G/G/G cA A/A/A|defd cAAF|GBAG FDDA|defd cA A/A/A|BG G/G/G cA A/A/A|defd cAAF|GBAG FGEF||


Tune 249	Setting 249

